justvector/hype_machine.svg

<?xml version="1.0" encoding="iso-8859-1"?>
<!-- Generator: Adobe Illustrator 15.0.0, SVG Export Plug-In . SVG Version: 6.00 Build 0)  -->
<!DOCTYPE svg PUBLIC "-//W3C//DTD SVG 1.1//EN" "http://www.w3.org/Graphics/SVG/1.1/DTD/svg11.dtd">
<svg version="1.1" id="Icons" xmlns="http://www.w3.org/2000/svg" xmlns:xlink="http://www.w3.org/1999/xlink" x="0px" y="0px"
	 width="100px" height="100px" viewBox="0 0 100 100" style="enable-background:new 0 0 100 100;" xml:space="preserve">
<path id="Hype_Machine" style="fill-rule:evenodd;clip-rule:evenodd;" d="M48,13C23.147,13,3,28.125,3,46.783
	c0,10.036,5.838,19.046,15.095,25.234C17.251,76.732,15.647,82.421,12.592,87c3.973,0,13.983-4.641,21.072-8.197
	c4.504,1.136,9.321,1.761,14.336,1.761c24.853,0,45-15.125,45-33.781C93,28.125,72.853,13,48,13z M69.536,47.264
	c-0.153,0.642-0.433,1.326-0.872,2.058c-0.81,1.537-1.906,2.897-3.219,4.014c-6.317,6.624-17.466,14.037-17.466,14.037
	s-11.149-7.42-17.467-14.037c-1.313-1.116-2.408-2.477-3.22-4.014c-0.439-0.732-0.718-1.417-0.871-2.058
	c-0.447-1.34-0.691-2.778-0.691-4.272c0-7.488,6.046-13.561,13.508-13.561c5.021,0,8.727,5.423,8.727,9.039
	c0-3.616,1.878-9.039,8.755-9.039c7.462,0,13.509,6.073,13.509,13.561C70.229,44.486,69.984,45.924,69.536,47.264z"/>
</svg>

<?xml version="1.0" encoding="UTF-8" standalone="no"?>
<!DOCTYPE svg PUBLIC "-//W3C//DTD SVG 1.1//EN" "http://www.w3.org/Graphics/SVG/1.1/DTD/svg11.dtd">
<svg width="100%" height="100%" viewBox="0 0 100 100" version="1.1" xmlns="http://www.w3.org/2000/svg" xmlns:xlink="http://www.w3.org/1999/xlink" xml:space="preserve" xmlns:serif="http://www.serif.com/" style="fill-rule:evenodd;clip-rule:evenodd;stroke-linejoin:round;stroke-miterlimit:2;">
    <path id="Hype_Machine" d="M48,13C23.147,13 3,28.125 3,46.783C3,56.819 42.985,80.564 48,80.564C72.853,80.564 93,65.439 93,46.783C93,28.125 72.853,13 48,13ZM69.536,47.264C69.383,47.906 69.103,48.59 68.664,49.322C67.854,50.859 66.758,52.219 65.445,53.336C59.128,59.96 47.979,67.373 47.979,67.373C47.979,67.373 36.83,59.953 30.512,53.336C29.199,52.22 28.104,50.859 27.292,49.322C26.853,48.59 26.574,47.905 26.421,47.264C25.974,45.924 25.73,44.486 25.73,42.992C25.73,35.504 31.776,29.431 39.238,29.431C44.259,29.431 47.965,34.854 47.965,38.47C47.965,34.854 49.843,29.431 56.72,29.431C64.182,29.431 70.229,35.504 70.229,42.992C70.229,44.486 69.984,45.924 69.536,47.264Z"/>
</svg>
